packages/foundations/assets/icons/functional/images/arrows/reload.svg

<svg xmlns="http://www.w3.org/2000/svg" width="32" height="32" fill="none"><path fill="#1A1C1F" fill-rule="evenodd" d="M11.198 2.093c-.394.199-.619.759-.478 1.188.117.352.36.549 1.569 1.264.648.384 1.209.722 1.248.752.051.04-.1.101-.56.227a10.9 10.9 0 0 0-6.453 4.919c-1.641 2.778-1.962 6.115-.887 9.206a11.13 11.13 0 0 0 3.364 4.834c.583.484.844.587 1.228.484.479-.128.754-.475.756-.955.002-.347-.112-.553-.483-.87a24 24 0 0 1-.732-.662c-1.341-1.267-2.304-3.066-2.627-4.91-.131-.749-.158-2.145-.054-2.823.563-3.698 3.3-6.636 6.923-7.432.272-.06.344-.218-.625 1.378-.943 1.555-.966 1.621-.717 2.121a.99.99 0 0 0 .707.551c.265.062.691-.063.873-.256.221-.236 2.971-4.9 3.04-5.158.052-.195.048-.271-.028-.469a1.2 1.2 0 0 0-.236-.372c-.203-.187-4.793-2.974-5.046-3.064-.294-.103-.509-.09-.782.047m10.543 4.951c-.441.107-.724.475-.726.944-.002.351.112.552.51.896 1.266 1.095 1.875 1.843 2.507 3.078.625 1.222.932 2.516.94 3.958.005.973-.058 1.505-.28 2.364-.723 2.795-2.923 5.171-5.652 6.105-.449.154-1.236.366-1.262.34-.009-.009.339-.603.773-1.319.797-1.315.916-1.55.916-1.807 0-.268-.257-.686-.514-.837-.204-.119-.283-.135-.579-.116-.282.018-.378.049-.537.179-.235.191-3.03 4.858-3.127 5.22-.052.195-.048.271.028.469.05.131.156.299.236.374.169.158 4.735 2.948 5.019 3.066.261.109.689.068.906-.086.205-.146.372-.455.415-.77.036-.265-.099-.636-.3-.823-.066-.062-.591-.394-1.167-.738s-1.143-.686-1.259-.759l-.213-.132.58-.152c3.412-.89 6.244-3.514 7.418-6.875a10.83 10.83 0 0 0 .055-7.07 11.1 11.1 0 0 0-3.408-5.02c-.605-.503-.843-.595-1.279-.489"/></svg>

<svg width="32" height="32" viewBox="0 0 32 32" fill="none" xmlns="http://www.w3.org/2000/svg"><path d="M11.198 2.093 C 10.804 2.292,10.579 2.852,10.720 3.281 C 10.837 3.633,11.080 3.830,12.289 4.545 C 12.937 4.929,13.498 5.267,13.537 5.297 C 13.588 5.337,13.437 5.398,12.977 5.524 C 10.291 6.259,7.932 8.057,6.524 10.443 C 4.883 13.221,4.562 16.558,5.637 19.649 C 6.280 21.499,7.473 23.213,9.001 24.483 C 9.584 24.967,9.845 25.070,10.229 24.967 C 10.708 24.839,10.983 24.492,10.985 24.012 C 10.987 23.665,10.873 23.459,10.502 23.142 C 10.316 22.983,9.987 22.685,9.770 22.480 C 8.429 21.213,7.466 19.414,7.143 17.570 C 7.012 16.821,6.985 15.425,7.089 14.747 C 7.652 11.049,10.389 8.111,14.012 7.315 C 14.284 7.255,14.356 7.097,13.387 8.693 C 12.444 10.248,12.421 10.314,12.670 10.814 C 12.818 11.111,13.045 11.288,13.377 11.365 C 13.642 11.427,14.068 11.302,14.250 11.109 C 14.471 10.873,17.221 6.209,17.290 5.951 C 17.342 5.756,17.338 5.680,17.262 5.482 C 17.212 5.351,17.106 5.184,17.026 5.110 C 16.823 4.923,12.233 2.136,11.980 2.046 C 11.686 1.943,11.471 1.956,11.198 2.093 M21.741 7.044 C 21.300 7.151,21.017 7.519,21.015 7.988 C 21.013 8.339,21.127 8.540,21.525 8.884 C 22.791 9.979,23.400 10.727,24.032 11.962 C 24.657 13.184,24.964 14.478,24.972 15.920 C 24.977 16.893,24.914 17.425,24.692 18.284 C 23.969 21.079,21.769 23.455,19.040 24.389 C 18.591 24.543,17.804 24.755,17.778 24.729 C 17.769 24.720,18.117 24.126,18.551 23.410 C 19.348 22.095,19.467 21.860,19.467 21.603 C 19.467 21.335,19.210 20.917,18.953 20.766 C 18.749 20.647,18.670 20.631,18.374 20.650 C 18.092 20.668,17.996 20.699,17.837 20.829 C 17.602 21.020,14.807 25.687,14.710 26.049 C 14.658 26.244,14.662 26.320,14.738 26.518 C 14.788 26.649,14.894 26.817,14.974 26.892 C 15.143 27.050,19.709 29.840,19.993 29.958 C 20.254 30.067,20.682 30.026,20.899 29.872 C 21.104 29.726,21.271 29.417,21.314 29.102 C 21.350 28.837,21.215 28.466,21.014 28.279 C 20.948 28.217,20.423 27.885,19.847 27.541 C 19.271 27.197,18.704 26.855,18.588 26.782 L 18.375 26.650 18.955 26.498 C 22.367 25.608,25.199 22.984,26.373 19.623 C 27.182 17.306,27.201 14.876,26.428 12.553 C 25.773 10.584,24.590 8.842,23.020 7.533 C 22.415 7.030,22.177 6.938,21.741 7.044 " fill="#1A1C1F" stroke="none" fill-rule="evenodd"></path></svg>
